X:1
T:O Holly Night
T:O Holy Night
T:Adolphe Charles Adam
C:Adolphe Charles Adam
%%score { ( 1 3 ) | 2 }
L:1/8
Q:1/4=60
M:6/8
K:D
V:1 treble nm="Piano" snm="Pno."
V:3 treble 
V:2 bass 
V:1
"^Tranquillo" z (A,D FDA,) | z (A,D FDA,) | (F3 F2 F | A3- A2) (A | B2 B G2 B | d6 | A2) (A F2 E | %7
 D3 F2 G |!>(! A3 G2 E | D6-!>)! | D3) z z2 | (F3 F2 F | A3- A2 (A) |!<(! B2 B G2 B!<)! | d6 | %15
 A2) (A ^G2 F | c3 A2 B |!>(! c3 d2 c!>)! | F6- | F3) z2 (A | A3 B3 | E3 A3 | B2 A d2 F | %23
 B3 A2) (A | A3 B3 | E3 A3 | B2 A d2 F | A3- A)(FA |!mf! [Fd]6- | [Fd]3) c2 B | [Fc]6- | %31
 [Fc]3 (c3 | [Ge]6- | [Ge]2 B B2 B | [Fd]6 | [Fd]3- [Fd]2)!f! (d | [Af]6 | [Ae]3- [Ae]2 A | %38
 [Ad-]6 |!>(! [Bd]3) (c2 B!>)! | A6- | A2 A B2 A |!<(! A6- | A3) (d3!<)! |!<(! e6- | e3 A3!<)! | %46
!ff! a6- | a2 g f2 e |!>(! d6)!>)!!mp! | (c3 d2 e | [Fd]6- | [Fd]6- | [Fd]6- | [Fd]6) |] %54
V:2
!ped! [D,F,]6 |!ped! [D,F,]6!ped-up! |!ped! D,!ped-up!F,A, D,F,A, |!ped! D,!ped-up!F,A, D,F,A, | %4
!ped! D,!ped-up!G,B, D,G,B, |!ped! D,!ped-up!F,A,"_simile" D,F,A, | D,F,A, D,F,A, | %7
 A,,D,F, A,,D,F, | A,,C,G, A,,C,G, | D,F,A, D,F,A, | D,F,A, G,E,A, | D,F,A, D,F,A, | %12
 D,F,A, D,F,A, | D,G,B, D,G,B, | D,F,A, D,F,A, | D,F,A, D,F,A, | C,F,A, C,F,A, | C,^E,^G, C,3 | %18
 F,A,C F,A,C | F,A,C F,A,C | E,G,A, E,G,A, | C,G,A, C,G,A, | D,F,A, D,F,A, | D,F,A, D,F,A, | %24
 E,G,A, E,G,A, | C,G,A, C,G,A, | D,F,A, D,F,A, | D,F,A, D,3 |!ped! [B,D]3 (B,,D,F,!ped-up! | %29
 B,3) z z2 |!ped! ([F,A,]3!ped-up! C,3 | F,,3) z z2 |!ped! [E,G,]3!ped-up! (E,,G,,B,, | E,3) z z2 | %34
!ped! [B,D]3!ped-up! (B,,D,F, | B,3!ped! ^A,3)!ped-up! |!ped! A,!ped-up!DF A,DF | %37
!ped! G,!ped-up!CE G,CF |!ped! F,!ped-up!A,D"_simile" F,A,D | G,B,D G,3 | A,DF A,DF | G,CE G,CE | %42
 D,A,D D,A,D | D,F,A,!f! D,F,A, | C,G,A, C,G,A, | E,G,A, E,G,A, | F,A,D F,A,D | [G,B,]6 | %48
 A,DF A,DF | A,6 |!ped! D,F,A, DA,F,!ped-up! | D,F,A, DA,F, | D,3 [D,,A,,]3 | %53
[K:treble]"_LH over" [fd']6 |] %54
V:3
 x6 | x6 | x6 | x6 | x6 | x6 | x6 | x6 | x6 | x6 | x6 | x6 | x6 | x6 | x6 | x6 | x6 | x6 | x6 | %19
 x6 | x6 | x6 | x6 | x6 | x6 | x6 | x6 | x6 | x6 | x6 | x6 | x6 | x6 | x6 | x6 | x6 | x6 | x6 | %38
 x6 | x6 | x6 | x6 | x6 | x6 | x6 | x6 | x6 | x6 | x6 | G6 | x6 | x6 | x6 | x6 |] %54

